X:1
T:Benedictus (Short Service) - Gibbons
T:#
%%score 1 2 3 4
L:1/8
Q:1/4=100
M:4/4
K:Ab
V:1 treble nm="Treble" snm="S"
V:2 treble nm="Alto" snm="A"
V:3 treble-8 nm="Tenor" snm="T"
V:4 bass nm="Bass" snm="B"
V:1
"^Full""^Benedictus from Short Service"!f!"^Orlando Gibbons\n(1583-1625)" A6 B2 | c2 d2 e4 | %2
w: Bless- ed|be the Lord|
 c2 e2 d2 c2 | B4 z2 G2 | A2 B2 cc B2 | d2 c2 B2 A2- |[M:3/2] A2 G2 AA"^Dec." A4 B2 | %7
w: God of Is- ra-|el, for|he hath vi- si- ted,|and re- deem- ed|* his peo- ple; And hath|
 c2 d2 e2 E2 A2 BB |[M:2/2] c2 A2 d2 e2 |[M:2/2] f2 f3 f e2 | =d2 e2 e2 d2 | %11
w: rais- ed up a migh- ty sal-|va- ti- on for|us in the house|of his ser- vant|
[M:3/2] e2 e2 z2!mf!"^Can." B4 B2 | c4 A2 A2 B2 d2 |[M:3/2] c2 B4 A2 G2 G2 | z2 B2 c2 (BA) G2 c2 | %15
w: Da- vid; As he|spake by the mouth of|his ho- ly Pro- phets,|which have been * since the|
 B2 (A4 G2) A2"^Dec." e2- | e2 c2 e3 e c2 A2 | z2 d3 B e4 =d2 | e2 B2 c2 _d2 e2 (dc) | %19
w: world be\- * gan; That|* we should be sa- ved|from our e- ne-|mies, and from the hands of *|
 B2 d4 c2 B4 |[M:2/2] z A (A4 G2) | A2 z2!p!"^Can." e4 | d2 !>!c2 c2 !>!B2- | %23
w: all that hate us,|that hate *|us; To|per- form the mer\-|
[M:2/2] B2 A2 !>!e3 e | d2 !>!c3 F (B2- | BAGF) E2 z2 | z2 B2 e2 A2 | d2 cc B2 A2- | %28
w: * cy pro- mi-|sed to our fa\-|* * * * thers,|and to re-|mem- ber his ho- ly|
 A2 G2 A2"^Dec." c2- | c2 e2 dd c2- | c2 B4 A2 | e4 d2 c2- | cF B3 AGF | E4 z2 E2 | A2 G2 F4 | %35
w: * cov'- nant; To|* per- form the oath|* which he|sware to our|* fore- fa- ther A- bra-|ham that|he would give|
[M:3/2] E2"^Can." B4"^cresc." e2 e2 cc |[M:2/2] e3 e c4 | z2 c2 A2 F2 | B2 d4 c2 | %39
w: us, That we be- ing de-|li- ve- red|out of the|hands of our|
[M:2/2] d2 e2 A4 | z2!f! B2 c2 d2 | e2 f2 c4 | z2 d2 d3 c | B2 A2 B2 c2 | B2 e4 (A2 | B4) c2 A2- | %46
w: e- ne- mies,|might serve him|with- out fear;|In ho- li-|ness and righ- teous-|ness be- fore|* him all|
 A2 F2 d4- | d2 c2 B4 | A4!p!"^Dec." A4 | B2 c4 !>!B2- | B2 =A2 !>!B3 c | d2 !>!c3 Bcd | %52
w: * the days|* of our|life. And|thou, child, shalt|* be call- ed|the Pro- phet of the|
 !>!e4 z2 E2 | A3 B c2 B2 | d3 c B A- A2 | A2 G2 A4 | z8 | z2 A2 B2 d2 | c2 B3 (E A2) | %59
w: High'st, for|thou shalt go be-|fore the face of *|* the Lord.||to pre- pare|his ways; his *|
 G2!mf!"^Can." B4 A2 | G2 c2 B2 A2 | d2 c2 B3 B | d2 A2 B4 | B2 G2 A4 | B2 c4 d2 | e4 A4 | %66
w: ways; To give|know- ledge of sal-|va- ti- on un-|to his peo-|ple for the|re- mis- si-|on of|
[M:3/2] B4 c2!p!"^Dec." c4 c2 |[M:3/2] c2 G2 A2 F2 A2 B2 |[M:2/2] c2 c2 _e3 e | e2 c2 e2 d2 | %70
w: their sins, Through the|ten- der mer- cy of our|God, where- by the|day- spring from on|
 c4 z2 B2 |[M:2/2] c2 A2 G4 | F2!mf!"^Can." c4 e2 | e2 =d2 e2 E2 | A2 B2 c2"^dim." AA | %75
w: high hath|vi- si- ted|us; To give|light to them that|sit in dark- ness, and|
 B2 c2 d2 B2 | B4 B2!pp! GG | !>!A4 B2 !>!c2- | %78
w: in the sha- dow|of death; and to|guide our feet|
[M:3/2] c2 d2[Q:1/4=98] !>!e4"^poco rit."[Q:1/4=94] A4 | %79
w: * in- to the|
[M:3/2][Q:1/4=94][Q:1/4=92][Q:1/4=94][Q:1/4=94][Q:1/4=94] B2[Q:1/4=90] B2[Q:1/4=90] c6 z2 || %80
w: way of peace.|
[M:2/2]"^a tempo" z2!f!"^Full"[Q:1/4=100] c4 c2 | B2 AA d4 | c2 B2 A2 A2 | %83
w: Glo- ry|be to the Fa-|ther, and to the|
[M:2/2][Q:1/4=100][Q:1/4=100][Q:1/4=100][Q:1/4=100] G4 B2 d2- | d2 c2 B2 B2 | B2 GG A4 | %86
w: Son, and to|* the Ho- ly|Ghost; As it was|
 F2 B4 =A2 | B2 G2 A4 | B4 c4 | z2 e2 !>!d3 d |[M:3/2] c2 !>!B4 B2 A4 | %91
w: in the be-|gin- ning, and|is now,|and ev- er|shall be, world with-|
[M:3/2][Q:1/4=98] G3[Q:1/4=96] (A[Q:1/4=96] B)[Q:1/4=95] (c[Q:1/4=94] B3[Q:1/4=92] A[Q:1/4=91] A2- | %92
w: out end. * A\- * * *|
[Q:1/4=90] A2[Q:1/4=89] G2)"^poco rit."[Q:1/4=86] A8- |[Q:1/4=84] !fermata!A8 |] %94
w: * * men.||
V:2
!f!"^Full" E6 E2 | E2 F2 G4 | A2 G2 F2 E2 | E4 z2 E2- | EF G2 AA G2 | F2 E2 D2 DD | %6
w: Bless- ed|be the Lord|God of Is- ra-|el, for|* he hath vi- si- ted,|and re- deem- ed his|
[M:3/2] B,4 C2"^Dec." E4 E2 | E2 F2 G3 F E2 FG |[M:2/2] A3 A A2 G2 |[M:2/2] F2 F3 G A2 | %10
w: peo- ple; And hath|rais- ed up a migh- ty sal-|va- ti- on for|us in the house|
 B2 E2 G2 F2 |[M:3/2] E2 E2 z2!mf!"^Can." E4 E2 | E4 F3 E D2 B,2 |[M:3/2] E2 D4 C2 B,2 B,2 | %14
w: of his ser- vant|Da- vid; As he|spake by the mouth of|his ho- ly Pro- phets,|
 z2 G2 A2 F2 E4- | E2 E2 E2 E2 E4 | z2"^Dec." A4 G2 A3 E | F4 D2 _GG F2 F2 | E4 z4 z2 F2 | %19
w: which have been since|* the world be- gan;|That we should be|sa- ved from our e- ne-|mies, and|
 G2 A2 B2 (AG) F3 B, |[M:2/2] (D2 C2 B,4) | A,2"^Can."!p! A4 G2 | F2 F2 E4 |[M:2/2] F2 A4 G2 | %24
w: from the hands of * all that|hate * *|us; To per-|form the mer-|cy pro- mi-|
 F6 F2 | E6 !>!C2 | B,2 E2 !>!E2 F2 | F2 A3 G F2 | E2 E2 C2"^Dec." A2- | A2 G2 F2 F2 | %30
w: sed: to|our fa-|thers, and to re-|mem- ber his ho-|ly cov'- nant; To|* per- form the|
 E2 E2 F2 A2- | AA G2 F4- | F2 F2 E4- | E2 C2 B,3 B, | E2 E4 =D2 | %35
w: oath which he sware|* to our fa\-|* ther A\-|* bra- ham that|he would give|
[M:3/2] E4 z2"^cresc.""^Can." G4 A2 |[M:2/2] A2 GG A2 E2 | F4 z2 A2 | F2 F2 F2 EC | %39
w: us, That we|be- ing de- li- ve-|red out|of the hands of our|
[M:2/2] F2 (E4 =D2) | E4 z2!f! F2 | A2 F2 E2 C2 | F4 z2 F2 | F3 E D2 E2 | E2 E2 E2 C2 | B,4 A,4 | %46
w: e- ne\- *|mies, might|serve him with- out|fear; In|ho- li- ness and|righ- teous- ness be-|fore him|
 z2 D4 F2 | E4 E2 E2 | E4 z2!p!"^Dec." D2- | D2 (E2 F2) _G2- | G2 F4 E2 | %51
w: all the|days of our|life. And|* thou, * child,|* shalt be|
 (F3 G)"^'""^." A2"^.""^\" A,2 | B,2 B,2 C3 B, | A,2 A2 A2 G2 | F6 E2 | F2 (ED) C2 (F2 | %56
w: call\- * ed the|Pro- phet of the|High'st, for thou shalt|go be-|fore the * face of|
 E2) (F2 _G4) | F6 F2 | E4 E2 E2 | E2!mf!"^Can." E4 E2 | E2 E2 E2 C2 | F2 E2 E (F G2) | F2 E4 =D2 | %63
w: * the *|Lord to|pre- pare his|ways; To give|know- ledge of sal-|va- ti- on un\- *|to his peo-|
 E4 E2 F2- | F2 G2 A4 | B2 E4 A2- |[M:3/2] A2 G2 A2!p!"^Dec." E4 E2 |[M:3/2] E2 E2 C3 C C2 F2 | %68
w: ple for the|* re- mis-|si- on of|* their sins, Through the|ten- der mer- cy of our|
[M:2/2] =E4 z2 _E2 | E3 E A2 F2 | E3 F !>!G2 G2- |[M:2/2] G2 !>!F3 F =E2 | %72
w: God, where-|by the day- spring|from on high hath|* vi- si- ted|
 !>!F2!mf!"^Can." _E4 E2 | E2 F2 G3 F | E2 D2 C2"^dim." FF | F2 (EC) F E- E2 | E2 =D2 E4 | %77
w: us, To give|light to them that|sit in dark- ness, and|in the * sha- dow *|* of death;|
!pp! EE F4 G2 |[M:3/2] A4 B2"^poco rit." E4 A2 |[M:3/2] A2 G2 A6 z2 || %80
w: and to guide our|feet in- to the|way of peace.|
[M:2/2]"^a tempo" z2!f!"^Full" A4 A2 | G2 FF F4 | E2 E2 E2 =D2 |[M:2/2] E4 G2 F2- | FE E4 =D2 | %85
w: Glo- ry|be to the Fa-|ther, and to the|Son, and to|* the Ho- ly|
 E4 EE F2- | F2 F2 E2 C2 | F2 E4 E2 | D4 C4 | z4 B2 !>!A2- |[M:3/2] AA _G2 !>!F6 E2 | %91
w: Ghost; As it was|* in the be-|gin- ning, and|is now,|and ev\-|* er shall be, world|
[M:3/2] E3 (F _G2) F4 (E2 | F2 ED)"^poco rit." C2 (E3 A, D2- | D2 CB,) !fermata!C4 |] %94
w: with- out * end. A\-|* * * men. A\- * *|* * * men.|
V:3
!f!"^Full" c6 B2 | A2 A2 B4 | A2 c2 F2 A2 | G4 z2 B2 | c2 d2 ee e2 | d2 e2 f2 ff | %6
w: Bless- ed|be the Lord|God of Is- ra-|el, for|he hath vi- si- ted,|and re- deem- ed his|
[M:3/2] e4 e2"^Dec." c4 B2 | A2 A2 B3 B c2 dd |[M:2/2] e3 e A2 (Bc) | %9
w: peo- ple; And hath|rais- ed up a migh- ty sal-|va- ti- on for *|
[M:2/2][K:treble-8] d2 A3 B c2 | F2 c2 B3 A |[M:3/2] G2 G2 z2"^Can."!mf! G4 G2 | %12
w: us in the house|of his ser- vant|Da- vid; As he|
 !>!A4 FF !>!A4 GG |[M:3/2][K:treble-8] !>!A2 F2 E4 E4 | B2 e4 =d2 e4- | e2 c2 B2 B2 c4 | %16
w: spake by the mouth of his|ho- ly Pro- phets,|which have been since|* the world be- gan;|
 z2"^Dec." c4 B2 c3 c | A2 A2 B2 B2 c2 B2 | B4 z2 B2 c2 d2 | e2 (dc) B2 c2 (d2 e2 |[M:2/2] f2 e6) | %21
w: That we should be|sa- ved from our e- ne-|mies, and from the|hands of * all that hate *||
 c4 z4 | z2!p!"^Can." c4 e2 |[M:2/2][K:treble-8] d2 c2 c2 B2 | BB A2 B2 (d2 | c2) !>!B3 E A2 | %26
w: us;|To per-|form the mer- cy|pro- mi- sed to our|* fa- thers, and|
 !>!G4 c2 !>!F2 | B2 A2 !>!d3 c | B4 A4 | z4 z2"^Dec." c2- | c2 e2 d2 c2 | c2 B4 A2 | %32
w: to re- mem-|ber his ho- ly|cov'- nant;|To|* per- form the|oath which he|
 B2 d2 c2 B2- | BEAA G3 G | c2 B2 B4 |[M:3/2][K:treble-8] G4 z2"^cresc.""^Can." B4 c2 | %36
w: sware to our fa\-|* ther A- bra- ham that|he would give|us, That we|
[M:2/2] c2 BB c3 c | A4 z2 A2 | d3 c (ABc)A |[M:2/2][K:treble-8] B4 c2 (BA) | G4 z2!f! d2 | %41
w: be- ing de- li- ve-|red out|of the hands * * of|our e- ne\- *|mies, might|
 c2 B2 B2 =A2 | B4 z2 F2 | F3 c F2 A2 | G3 A B2 A2- | A2 G2 A4 | z2 A2 F2 B2- | B2 A4 G2 | A4 z4 | %49
w: serve him with- out|fear; In|ho- li- ness and|righ- teous- ness be\-|* fore him|all the days|* of our|life.|
 z2!p!"^Dec." A4 B2 | c4 z2 B2- | B2 A3 (G F2) | E4 z2 e2 | e2 =d2 e2 E2 | B3 A B2 c2 | B4 A4 | %56
w: And thou,|child, shalt|* be call\- *|ed the|Pro- phet of the|High'st, for thou shalt|go be-|
 (Bc d4) c2 | !>!d3 (c B)!>!A !>!B2- | BA G2 !>!A2 c2 | B2!mf!"^Can." G4 c2 | B2 A2 G2 A2- | %61
w: fore * * the|face of * the Lord|* to pre- pare his|ways; To give|know- ledge of sal\-|
 A (Bc)A B4 | B2 c2 F2 B2 | B4 c2 F2 | f2 e4 d2- | d2 c4 c2 |[M:3/2] B4 A2!p!"^Dec." c4 c2 | %67
w: * va\- * ti- on|un- to his peo-|ple for the|re- mis- si\-|* on of|their sins, Through the|
[M:3/2][K:treble-8] c2 B2 A2 A2 A2 F2 |[M:2/2] G4 z2 G2 | c3 c c2 B2 | A2 A2 B2 G2 | %71
w: ten- der mer- cy of our|God, where-|by the day- spring|from on high hath|
[M:2/2][K:treble-8] G2 A2 c4 | c2!mf!"^Can." c4 B2 | c2 (BA) B4 | c A2 G !>!A2"^dim." F2- | %75
w: vi- si- ted|us; To give|light to * them|that sit in dark- ness,|
 FG !>!A2 B2 !>!G2 | F2 F2 G4 |!pp! cc F2 f2 e2- |[M:3/2] e2 d4"^poco rit." c3 B c2 | %79
w: * and in the sha-|dow of death;|and to guide our feet|* in- to the way|
[M:3/2][K:treble-8] B4 A6 z2 ||[M:2/2]"^a tempo" z2!f!"^Full" c4 c2 | e2 cc (FG) A2- | %82
w: of peace.|Glo- ry|be to the Fa\- * ther,|
 A2 B2 c2 (BA) |[M:2/2][K:treble-8] B6 B2 | A3 G F2 F2 | G4 cc F2- | F2 d2 c2 c2 | B4 A2 A2- | %88
w: * and to the *|Son, and|to the Ho- ly|Ghost; As it was|* in the be-|gin- ning, and|
 A2 G2 A4 | z8 |[M:3/2] z2 e2 d3 d d2 c2 |[M:3/2][K:treble-8] B6 d4 c2 | B4"^poco rit." (A3 G F4 | %93
w: * is now,||and ev- er shall be,|world with- out|end. A\- * *|
 F2 E2) !fermata!E4 |] %94
w: * * men.|
V:4
!f!"^Full" A,6 G,2 | A,2 F,2 E,4 | F,2 C,2 D,2 A,,2 | E,4 z2 E,2 | C,2 B,,2 A,,A,, E,2 | %5
w: Bless- ed|be the Lord|God of Is- ra-|el, for|he hath vi- si- ted,|
 B,,2 C,2 D,2 D,D, |[M:3/2] E,4 A,,2"^Dec." A,4 G,2 | A,2 F,2 E,3 D, C,2 B,,B,, | %8
w: and re- deem- ed his|peo- ple; And hath|rais- ed up a migh- ty sal-|
[M:2/2] A,,2 A,2 F,2 E,2 |[M:2/2] D,2 D,3 D, C,2 | B,,2 A,,2 B,,2 B,,2 | %11
w: va- ti- on for|us in the house|of his ser- vant|
[M:3/2] E,2 E,2 z2!mf!"^Can." E,4 E,2 | C,4 D,3 C, B,,4 |[M:3/2] A,,2 B,,2 G,,2 A,,2 E,2 E,2 | %14
w: Da- vid; As he|spake by the mouth|of his ho- ly Pro- phets,|
 z2 E,2 A,2 B,2 C2 (B,A,) | G,2 (A,2 E,4) A,,4 | z2"^Dec." A,4 E,2 A,3 A, | %17
w: which have been since the *|world be\- * gan;|That we should be|
 F,2 D,2 _G,3 E, A,2 B,2 | E,4 z4 z4 | z2 F,2 G,2 A,2 B,2 (A,G,) |[M:2/2] F,2 A,2 E,4 | A,,4 z4 | %22
w: sa- ved from our e- ne-|mies,|and from the hands of *|all that hate|us;|
 z2!p!"^Can." A,4 G,2 |[M:2/2] F,2 F,2 E,2 E,2 | F,3 E, D,2 B,,B,, | (E,3 D,) C,2 A,,2 | %26
w: To per-|form the mer- cy|pro- mi- sed to our|fa\- * thers, and|
 E,2 E,2 C,2 D,2 | B,,2 F,2 D,4 | E,4 A,,4 | z4 z2"^Dec." A,2- | A,2 G,2 F,2 F,2 | E,4 F,3 E, | %32
w: to re- mem- ber|his ho- ly|cov'- nant;|To|* per- form the|oath which he|
 D,2 B,,B,, E,3 D, | C,2 A,,2 E,3 E, | C,2 E,2 B,,4 |[M:3/2] E,4 z2"^cresc.""^Can." E,4 A,2 | %36
w: sware to our fa- ther|A- bra- ham that|he would give|us, That we|
[M:2/2] A,2 E,E, A,3 A, | F,4 z2 F,2 | D,2 B,,2 F,2 A,2- |[M:2/2] A,2 G,2 A,2 F,2 | %40
w: be- ing de- 1i- ve-|red out|of the hands of|* our e- ne-|
 E,4 z2!f! B,,2 | C,2 D,2 E,2 F,2 | B,,4 z2 D,2 | D,3 C, B,,2 A,,2 | E,3 F, G,2 C,2 | E,4 A,,4 | %46
w: mies, might|serve him with- out|fear; In|ho- li- ness and|righ- teous- ness be-|fore him|
 z2 D,4 B,,2 | E,4 E,2 E,2 | A,,4 z4 | z4 z2!p!"^Dec." E,2- | E,2 F,2 _G,4 | F,3 E, (F,=G,) A,2- | %52
w: all the|days of our|life.|And|* thou, child,|shalt be call\- * ed|
 A,2 G,2 A,3 G, | F, (E, F,2) E,4 | B,,2 D,4 C,2 | D,2 E,2 F,2 D,2 | _G,2 F,2 E,4 | D,6 B,,B,, | %58
w: * the Pro- phet|of the * High'st,|for thou shalt|go be- fore the|face of the|Lord to pre-|
 E,3 (D, C,2 A,,2) | E,2"^'"!mf!"^Can." E,4 C,2 | E,2 A,,2 E,2 F,2 | D,2 A,,2 E,3 E, | %62
w: pare his * *|ways; To give|know- ledge of sal-|va- ti- on un-|
 D,2 C,2 B,,4 | E,4 C,2 D,2- | D,2 E,2 F,4 | G,2 A,4 C,2 |[M:3/2] E,4 A,,2"^Dec."!p! A,4 A,2 | %67
w: to his peo-|ple for the|* re- mis-|si- on of|their sins, Through the|
[M:3/2] A,2 E,2 F,2 F,2 F,2 D,2 |[M:2/2] C,4 z2 C,2 | A,,3 A,, A,,2 B,,2 | C,2 A,,2 E,3 E, | %71
w: ten- der mer- cy of our|God, where-|by the day- spring|from on high hath|
[M:2/2] C,2 F,2 C,4 | F,2"^Can."!mf! A,4 G,2 | A,2 F,2 E,3 D, | C,2 B,,2 A,,2"^dim." D,2- | %75
w: vi- si- ted|us; To give|light to them that|sit in dark- ness,|
 D,2 C,2 B,,2 E,2 | B,,B,, B,,2 E,4 |!pp! C,C, D,4 E,2 |[M:3/2] F,4 G,2"^poco rit." A,4 C,2 | %79
w: * and in the|sha- dow of death,|and to guide our|feet in- to the|
[M:3/2] E,2 E,2 A,,6 z2 ||[M:2/2]"^a tempo" z2!f!"^Full" A,4 A,2 | E,2 F,F, (D,E,F,G,) | %82
w: way of peace.|Glo- ry|be to the Fa\- * * *|
 A,2 G,2 F,2 F,2 |[M:2/2] E,6 B,,2 | D,2 A,,2 B,,2 B,,2 | E,4 C,C, D,2- | D,2 B,,2 E,2 F,2 | %87
w: ther, and to the|Son, and|to the Ho- ly|Ghost; As it was|* in the be-|
 D,2 E,2 C,4 | B,,4 A,,4 | A,2 _G,3 G, F,2 |[M:3/2] E,4 B,,C, (D,E, F,G, A,2) | %91
w: gin- ning, and|is now,|and ev- er shall|be, world with- out * * * *|
[M:3/2] E,6 D,2 B,,2 C,2 | D,2 (E,2"^poco rit." F,2 C,2 D,4) | !fermata!A,,8 |] %94
w: end, world with- out|end. A\- * * *|men.|

